X: 1
T: Alec Hercher
M: 6/8
L: 1/8
R: jig
K: Amaj
E | A2 A cBA | F3 D2 F | E2 e cBA | G B2 B2 c |
A2 A cBA | F3 D2 F | E2 A GAB | c A2 A2 E |
A3 cBA | F3 D2 F | E2 e cBA | G B2 B2 e |
cBA ecA | F3 D2 F | E2 A GAB | c A2 A2 g |
a2 A cde | f a2 e2 c | d b2 c a2 | B E2 G2 B |
a2 A cde | f a2 d2 f | e2 A GAB | c A2 A2 g |
a2 A cde | f a2 e2 c | d b2 c a2 | B E2 G2 B |
A2 A, CDE | F3 D2 F | E2 A GAB | c A2 A3 |
